X:1
T:Title
%%score { ( 1 3 ) | ( 2 4 ) }
L:1/8
Q:1/4=92
M:6/8
K:Bb
V:1 treble nm="Grand Piano"
V:3 treble 
V:2 bass 
V:4 bass 
V:1
 [DF]2 [DF] [DG]2 [DG] | AB[DG] [DA]2 [DA] | [DF]2 [DF] [DG]2 [DG] | [EB]2 [EB] [EA]3 | G2 G c2 c | %5
w: Powell~G.~Fithian * * *|||||
 G2 G A2 A | B2 G A2 A | [_DG]2 [D=E] [=DF]3 | [DBd]2 [DBd] [EBe]2 [EBe] | %9
w: ||||
 [Ac][GB][EAc] [DBd]2 [DBd] | [DB]2 [DB] [Ec]2 [Ec] | AB[Gc] [^Fd]3 | d2 f e2 d | de=B [Fd]2 [Ec] | %14
w: |||||
 GAB d2 c | =E-[EB][CEA] [A,F]3 | [F,DF]2 [F,DF] [DG]2 [DG] | AB[DG] [DA]2 [DA] | %18
w: ||||
 [DF]2 [DF] [DG]2 [DG] | [EB]2 [EB] [EA]3 | [FB]2 [FB] [Gc]2 [Gc] | [Ad]2 [Ad] [Be]2 [Be] | %22
w: ||||
 [B=e]2 [Be] [Bf]2 [FB] | [Bc]2 [Ae] [FBd]3 | %24
w: ||
 [Gc]2 [Gc] [FB]2 [FB][Q:1/4=90][Q:1/4=89][Q:1/4=87][Q:1/4=86][Q:1/4=84][Q:1/4=83][Q:1/4=81][Q:1/4=80][Q:1/4=79][Q:1/4=77][Q:1/4=76][Q:1/4=74][Q:1/4=73][Q:1/4=71][Q:1/4=70] | %25
w: |
 [^Fc]2 [Fc] [=FB]2 [FB] | [Gc]2 [Gc] d2 B | F2 c [DB]3 |] %28
w: |||
V:2
 [B,,F,]2 [B,,F,] [F,,F,]2 [F,,F,] | [B,,F,]2 [B,,F,] [F,,F,]2 [F,,F,] | %2
 [B,,F,]2 [B,,F,] [F,,F,]2 [F,,F,] | [C,F,]2 [C,F,] [F,,F,]3 | [F,B,E]2 [F,B,E] [F,A,E]2 [F,A,E] | %5
 [F,B,E]2 [F,B,E] [F,CE]2 [F,CE] | [F,G,E]2 [F,B,E] [F,CE]2 [F,E] | [B,,=E,]2 [B,,G,] [B,,F,]3 | %8
 [B,,F,]2 [B,,^F,] [B,,G,]2 [B,,G,] | [B,,F,]2 [B,,F,] [B,,F,]2 [B,,F,] | %10
 [G,B,]2 [G,B,] [C,G,]2 [C,G,] | .[F,E]3 z3 | [G,=B,F]2 [G,DF] [G,CG]2 [G,B,G] | %13
 FG[G,F][K:bass] [C,G,]2 [C,G,] | G,A,B, D2 C | z DC, z2 E | B,,2 B,, [F,,F,]2 [F,,F,] | %17
 [B,,F,]2 [B,,F,] [F,,F,]2 [F,,F,] | [B,,F,]2 [B,,F,] [F,,F,]2 [F,,F,] | [C,F,]2 [C,F,] [F,,F,]3 | %20
 [D,B,]2 [D,B,] [E,B,]2 [E,B,] | [F,B,]2 [F,B,] [G,E]2 [G,E] | [G,C]2 [^F,_D] [=F,=D]2 [F,D] | %23
 [F,F]2 [F,F] [B,,B,]3 | [E,B,]2 [E,B,] [D,B,]2 [D,B,] | [E,B,]2 [E,B,] [D,B,]2 [D,B,] | %26
 [E,B,]2 [E,B,] [F,B,F]2 [F,DF] | [F,A,E]2 [F,A,E] [B,,F,]3 |] %28
V:3
 x6 | .D3 z3 | x6 | x6 | x6 | x6 | x6 | x6 | x6 | .E3 z3 | x6 | x6 | x6 | x6 | x6 | .[CG]3 z3 | %16
 x6 | .D3 z3 | x6 | x6 | x6 | x6 | x6 | x6 | x6 | x6 | x6 | x6 |] %28
V:4
 x6 | x6 | x6 | x6 | x6 | x6 | x6 | x6 | x6 | x6 | x6 | z G,[E,G,] [D,A,]3 | x6 | %13
 .[G,=B,]3[K:bass] z3 | x6 | .C,3 F,3 | x6 | x6 | x6 | x6 | x6 | x6 | x6 | x6 | x6 | x6 | x6 | %27
 x6 |] %28

